X: 1
T: Down by the Mailbox
O: Sam Beckett 2019
%R: march
F: http://ancients.sudburymuster.org/mus/sng/pdf/mailboxF.pdf
Z: 2020 John Chambers <jc:trillian.mit.edu>
M: 2/4
L: 1/8
K: G
d |\
dB z2 | zB cd | ec z2 | z"^>"d2 c | Bd BG | Ad BG | A4 zA Bc |\
dB z2 | zB cd | ec z2 | z"^>"d2 c | Bd BG | Ac AF | G4- | G2 z :|
|: d |\
"^>"g2 "^>"g2 | "^>"d3 d | ef ge | dB G2 | "^>"g2 "^>"g2 | "^>"d3 d | ef ge | d3 d |\
"^>"g2 "^>"g2 | "^>"d3 d | ef ge | dB G2 | Bd BG | Ac AF | G4- | G2 z :|
